packages/web-icons/svgs/info_2.svg

<svg viewBox="0 0 48 48" xmlns="http://www.w3.org/2000/svg" class="ridi_icon"><path d="M24 0C10.7 0 0 10.7 0 24s10.7 24 24 24 24-10.7 24-24S37.3 0 24 0zm0 45C12.4 45 3 35.6 3 24S12.4 3 24 3s21 9.4 21 21-9.4 21-21 21zm.5-28.8c.9 0 1.5-.2 2-.6.5-.4.8-1 .8-1.6 0-.6-.3-1.2-.8-1.6-.5-.4-1.2-.7-2-.7s-1.5.2-2 .7c-.5.4-.7 1-.7 1.6 0 .7.2 1.2.7 1.6.5.4 1.1.6 2 .6zm2.3 2.2H19v3.1h4v11.3h-4.7V36h13.5v-3.1h-5V18.4z"/></svg>

<?xml version="1.0" encoding="UTF-8"?>
<svg width="48px" height="48px" viewBox="0 0 48 48" version="1.1" xmlns="http://www.w3.org/2000/svg">
  <!-- Generator: Sketch 41.2 (35397) - http://www.bohemiancoding.com/sketch -->
  <title>info_2</title>
  <desc>Created with Sketch.</desc>
  <defs></defs>
  <g id="Page-1" stroke="none" stroke-width="1" fill="none" fill-rule="evenodd">
    <g id="info_2" fill="#000000">
      <g id="Layer_2">
        <path d="M24,0 C10.7,0 0,10.7 0,24 C0,37.3 10.7,48 24,48 C37.3,48 48,37.3 48,24 C48,10.7 37.3,0 24,0 Z M24,45 C12.4,45 3,35.6 3,24 C3,12.4 12.4,3 24,3 C35.6,3 45,12.4 45,24 C45,35.6 35.6,45 24,45 Z M24.5,16.2 C25.4,16.2 26,16 26.5,15.6 C27,15.2 27.3,14.6 27.3,14 C27.3,13.4 27,12.8 26.5,12.4 C26,12 25.3,11.7 24.5,11.7 C23.7,11.7 23,11.9 22.5,12.4 C22,12.8 21.8,13.4 21.8,14 C21.8,14.7 22,15.2 22.5,15.6 C23,16 23.6,16.2 24.5,16.2 Z M26.8,18.4 L19,18.4 L19,21.5 L23,21.5 L23,32.8 L18.3,32.8 L18.3,36 L31.8,36 L31.8,32.9 L26.8,32.9 L26.8,18.4 L26.8,18.4 Z" id="Shape"></path>
      </g>
    </g>
  </g>
</svg>
